X:18596
T:Wer jagen will...
R:
O:
S:source
B:Frau Nachtigall (Straßburg - 1928)
Z:<anamnese@caramail.com> -- http://anamnese.fr.st
N:p.101
M:3/4
L:1/8
Q:1/4=130
K:F
F | "F"F A c3 c | "F"f c A2 AB | "C"c B/A/ B2 G2 | "F"(GA3) z :| A | "C"G B G3 F | "F"A c c3 A |
"C"G B B3 G | "F"A c Hc2 z F | "F"F A c3 c | "F"f  c A2 Ac | "C"c B/A/ B2 G2 | "F"(GA3) z |]


